img/icons/telegram.svg

<svg width="18" height="16" viewBox="0 0 18 16" fill="none" xmlns="http://www.w3.org/2000/svg">
<path fill-rule="evenodd" clip-rule="evenodd" d="M3.87648 9.6909C3.9145 9.70379 3.95359 9.71313 3.99328 9.7188C4.24361 10.3187 4.49254 10.9192 4.74007 11.5204C5.18513 12.602 5.63374 13.7161 5.73195 14.0365C5.85494 14.4306 5.98412 14.6988 6.1257 14.8824C6.19914 14.9759 6.28319 15.0587 6.38229 15.1217C6.43392 15.1546 6.48916 15.1812 6.54687 15.2009C6.83001 15.3089 7.08838 15.2639 7.2503 15.209C7.34532 15.176 7.43574 15.1307 7.51929 15.074L7.52371 15.0722L10.0242 13.4866L12.9132 15.7382C12.9556 15.7714 13.0016 15.7993 13.0512 15.8218C13.398 15.9748 13.7343 16.0288 14.051 15.9856C14.366 15.9406 14.6164 15.8065 14.8031 15.6545C15.0175 15.4787 15.1884 15.2544 15.3022 14.9993L15.3101 14.9795L15.3128 14.9723L15.3146 14.9687V14.9669L15.3155 14.966C15.3308 14.9273 15.3427 14.8873 15.3508 14.8464L17.9876 1.32554C17.9959 1.28226 18.0001 1.23826 18 1.19416C18 0.798209 17.8531 0.421156 17.5089 0.193485C17.2134 -0.0017911 16.8851 -0.0107901 16.6772 0.00540789C16.4542 0.0234057 16.2472 0.0791987 16.1082 0.124193C16.0305 0.149259 15.9537 0.177479 15.8782 0.208783L15.8685 0.213282L1.07956 6.11295L1.07779 6.11385C1.02775 6.13257 0.97846 6.15328 0.930025 6.17594C0.812753 6.22956 0.700257 6.29339 0.593793 6.36672C0.392938 6.5062 -0.0698231 6.88955 0.008926 7.52307C0.0708635 8.02701 0.410635 8.33747 0.618568 8.48685C0.731825 8.56874 0.839773 8.62724 0.919407 8.66593C0.9548 8.68393 1.03089 8.71453 1.06363 8.72892L1.07248 8.73162L3.87648 9.6909ZM16.3861 1.45513H16.3843C16.3767 1.45857 16.369 1.46187 16.3613 1.46503L1.55471 7.37279C1.54709 7.37592 1.53942 7.37892 1.5317 7.38179L1.52286 7.38449C1.49581 7.3953 1.46924 7.40731 1.44322 7.42049C1.46785 7.43483 1.49325 7.44775 1.51932 7.45918L4.29942 8.41126C4.34911 8.42829 4.39663 8.45125 4.441 8.47965L13.6228 3.01283L13.6316 3.00833C13.6673 2.98629 13.7039 2.96587 13.7414 2.94714C13.8051 2.91385 13.9068 2.86525 14.0218 2.82926C14.1015 2.80406 14.3377 2.73297 14.5926 2.81666C14.7277 2.85999 14.8482 2.9411 14.9402 3.05074C15.0322 3.16037 15.092 3.29411 15.1128 3.43668C15.1458 3.56154 15.1467 3.69291 15.1155 3.81823C15.0535 4.0657 14.8837 4.25828 14.7279 4.40586C14.5952 4.53185 12.8742 6.22004 11.1763 7.88663L8.86422 10.1543L8.45278 10.5593L13.6484 14.6106C13.7186 14.6405 13.7947 14.6529 13.8705 14.6466C13.9087 14.6413 13.9446 14.6251 13.9741 14.5998C14.0099 14.569 14.0407 14.5325 14.0652 14.4918L14.067 14.4909L16.6241 1.37684C16.5435 1.39654 16.4646 1.42241 16.3879 1.45423L16.3861 1.45513ZM8.89961 12.6083L7.8626 11.8002L7.61131 13.4245L8.89961 12.6083ZM6.91142 10.1966L7.94223 9.18427L10.2543 6.91475L11.1152 6.07065L5.34617 9.50553L5.37714 9.57932C5.74098 10.4535 6.10081 11.3294 6.45662 12.207L6.70702 10.5872C6.72968 10.437 6.80173 10.2999 6.91142 10.1966Z" fill="white"/>
</svg>

<svg width="18" height="16" fill="none" xmlns="http://www.w3.org/2000/svg"><path fill-rule="evenodd" clip-rule="evenodd" d="M3.876 9.69a.65.65 0 00.117.029c.25.6.5 1.2.747 1.801.445 1.082.894 2.196.992 2.517.123.394.252.662.394.845.073.094.157.177.256.24a1.035 1.035 0 00.868.087c.095-.033.186-.078.27-.135l.004-.002 2.5-1.585 2.89 2.251a.676.676 0 00.137.084c.347.153.683.207 1 .164.315-.045.565-.18.752-.332.214-.175.385-.4.5-.655l.007-.02.003-.007.002-.003v-.003a.69.69 0 00.036-.12l2.637-13.52A.69.69 0 0018 1.194c0-.396-.147-.773-.491-1-.296-.196-.624-.205-.832-.189-.223.018-.43.074-.569.12a3.028 3.028 0 00-.23.084l-.01.004-14.788 5.9h-.002c-.05.02-.1.04-.148.063a2.22 2.22 0 00-.336.19c-.201.14-.664.524-.585 1.157.062.504.402.814.61.964.113.082.22.14.3.179.036.018.112.049.145.063l.008.003 2.804.959zm12.51-8.235h-.002a.704.704 0 01-.023.01L1.555 7.373a.73.73 0 01-.023.009l-.01.002a.986.986 0 00-.079.036c.025.015.05.028.076.04l2.78.951c.05.017.098.04.142.069l9.182-5.467.009-.005c.035-.022.072-.042.11-.06.063-.034.165-.083.28-.119a.938.938 0 01.57-.012.755.755 0 01.348.234c.092.11.152.243.173.386a.768.768 0 01.003.381c-.063.248-.232.44-.388.588-.133.126-1.854 1.814-3.552 3.48l-2.312 2.268-.411.405 5.195 4.052c.07.03.147.042.223.036a.202.202 0 00.103-.047.446.446 0 00.091-.108l.002-.001 2.557-13.114c-.08.02-.16.045-.236.077l-.002.001zM8.9 12.608L7.863 11.8l-.252 1.624 1.289-.816zm-1.99-2.411l1.031-1.013 2.312-2.27.861-.843-5.769 3.435.031.073c.364.874.724 1.75 1.08 2.628l.25-1.62a.674.674 0 01.204-.39z" fill="#fff"/></svg>
